X:1
T:Easter Song (Andrews)
T:W. J. Wells
T:Easter Song (Andrews)
T:Public Domain
T:Public Domain
C:W. J. Wells
Z:Public Domain
%%score ( 1 2 ) ( 3 4 )
L:1/8
M:4/4
K:Bb
V:1 treble 
V:2 treble 
V:3 bass 
V:4 bass 
V:1
 [DF]3 [DB] [Fd]2 [DB]2 | [Ec]2 [EB]2 [EA]2 [EG]2 | [DF]3 [EG] [DF]2 [B,D]2 | %3
w: 1.~We a band of|faith- ful work- ers,|In the ar- my|
w: 2.~He has tri- umphed|o- ver dark- ness,|And as- cend- ed|
 [A,C]3 [B,D] [A,C]3 z | [DF]3 [DB] [Fd]2 [DB]2 | [Ec]2 [EB]2 [EA]2 [EG]2 | %6
w: of the Lord;|Je- sus is our|Cap- tain, And we’re|
w: up on high;|An- gel bands are|shout- ing Hal- le-|
 [DF]3 [DF] [EG]2 [EA]2 | [DB]6 z2 | [CA]3 [DB] [Ec]2 [EF]2 | [EG]2 [EF]2 ([DF]2 [DB]) z | %10
w: trust- ing in His|Word;|Tho’ He died up-|on the cross, *|
w: lujah thro’ the sky!|Let|our voic- es join|the chor- us, *|
 [CA]3 [DB] [Ec]2 [EF]2 | [EG]2 [EF]2 ([DF]2 [DB]) z | [DF]3 [DB] [Fd]2 [DB]2 | %13
w: Yet He lives a-|gain to- day, *|Glo- ry, glo- ry,|
w: Send- ing back the|glad re- frain, *|Glo- ry, glo- ry,|
 [Ec]2 [EB]2 [EA]2 [EG]2 | [DF]3 [DF] [EG]2 [EA]2 | [DB]6 z2 ||"^Refrain" D>D D>E [FB]2 D2 | %17
w: hal- le- lu- jah!|Men and an- gels|say.||
w: hal- le- lu- jah!|Je- sus lives a-|gain!||
 E>E E>E [Gc]2 G2 | [FB]3 [EA] [DB][DB][=EA][EB] | [Fc]6 z2 | D>D D>E [FB]2 D2 | E>E E>E [Gc]2 G2 | %22
w: |||||
w: |||||
 [FB]3 [FB] [EA]2 [Ec]2 | DDEE D2 z2 |] %24
w: ||
w: ||
V:2
 x8 | x8 | x8 | x8 | x8 | x8 | x8 | x8 | x8 | x8 | x8 | x8 | x8 | x8 | x8 | x8 || F6 x2 | G4 x4 | %18
 x8 | x8 | F6 x2 | G4 x4 | x8 | B6 x2 |] %24
V:3
 [B,,B,]3 [B,,B,] [B,,B,]2 [B,,F,]2 | [E,G,]2 [E,G,]2 [E,B,]2 [E,B,]2 | %2
w: ~ ~ ~ ~|~ ~ ~ ~|
 [B,,B,]3 [B,,B,] [B,,B,]2 [D,F,]2 | F,3 F, F,3 z | [B,,B,]3 [B,,B,] [B,,B,]2 [B,,F,]2 | %5
w: ~ ~ ~ ~|~ ~ ~|~ ~ ~ ~|
 [E,G,]2 [E,G,]2 [E,B,]2 [E,B,]2 | [F,B,]3 [F,B,] [F,A,]2 [F,C]2 | [B,,B,]6 z2 | %8
w: ~ ~ ~ ~|~ ~ ~ ~|~|
 [F,C]3 [F,B,] [F,A,]2 [F,A,]2 | [F,A,]2 [F,A,]2 ([B,,B,]2 [B,,B,]) z | %10
w: ~ ~ ~ ~|~ ~ ~ *|
 [F,C]3 [F,B,] [F,A,]2 [F,A,]2 | [F,A,]2 [F,A,]2 ([B,,B,]2 [B,,B,]) z | %12
w: ~ ~ ~ ~|~ ~ ~ *|
 [B,,B,]3 [B,,B,] [B,,B,]2 [B,,F,]2 | [E,G,]2 [E,G,]2 [E,B,]2 [E,B,]2 | %14
w: ~ ~ ~ ~|~ ~ ~ ~|
 [F,B,]3 [F,B,] [F,A,]2 [F,C]2 | [B,,B,]6 z2 || [B,,B,]>[B,,B,] [B,,B,]>[C,A,] [D,D]2 [B,,D]2 | %17
w: ~ ~ Glo- ry,|hal-|le- lu- jah! Glo- ry, hal-|
 [E,B,]>[E,B,] [E,B,]>[E,B,] [C,E]2 [E,E]2 | [F,D]3 [F,C] B,B,CB, | (F,2 F,2 F,2 (3E,D,C,) | %20
w: le- lu- jah! Shout, O shout|the glad re- frain! Glo- ry,|lu- * * * * *|
 [B,,B,]>[B,,B,] [B,,B,]>[C,A,] [D,D]2 [B,,D]2 | [E,B,]>[E,B,] [E,B,]>[E,B,] [C,E]2 [E,E]2 | %22
w: Glo- ry, hal- le- lu- jah!|Je- sus lives a- gain. He|
 [F,D]3 [F,D] [F,C]2 [F,,F,A,]2 | B,F,G,G, F,2 z2 |] %24
w: lives a- gain! *||
V:4
 x8 | x8 | x8 | F,3 F, F,3 x | x8 | x8 | x8 | x8 | x8 | x8 | x8 | x8 | x8 | x8 | x8 | x8 || x8 | %17
w: |||~ ~ ~||||||||||||||
 x8 | x4 G,2 C,2 | A,6 x2 | x8 | x8 | x8 | B,,4 x4 |] %24
w: |hal- le-|jah!|||||

